X:1
T:The Thirsty Vampires
T:William Hayes (1708-1777)
T:The following alludes to a Notion receiv'd in Poland & other Countries, that some Persons,after they are dead & buried, have a Power of sucking the Blood of others 'till they dye;a comsumptive Person is therefore said to be sucked by some Vampire: for so they call thosewho are supposed to have this Faculty.
%%score [ 1 2 3 ]
L:1/8
Q:1/4=80
M:4/4
K:F
V:1 treble nm="I"
V:2 treble nm="II"
V:3 treble nm="III"
V:1
|: F2 | A2 F2 c2 A2 | d2{fed} e2 f3 (e/d/) | c2{de} f2{f} e2 z2 | z4 z2 d2 | c2{de} f2 e4 | %6
w: The|thirst- y Vam- pires,|some be- lieve, their _|graves can pierce|and|Cof- fins leave,|
 z4 z2 (fF) | =B2 c2 d2 (cB) | c2 C2 c4- | c4 B4 | B4 A4 | z2 A,2 A4- | A4 (G2 F2) | %13
w: to _|suck poor Mor- tals _|dry, to suck|_ poor|Mor- tals,|to suck|_ poor _|
 (E2 F2 G2) (FE) | F6 :| %15
w: Mor- * * tals _|dry.|
V:2
|: z2 | z2 F2 A2 F2 | B2 G2 A2 (GB) | A4 z2 (GA) |{c} B2 (AG) A2 z2 | z4 z2 (GA) | B2 (AG) A2 F2 | %7
w: |If I've the|Luck to drink when _|dead, to _|drink when _ dead|to _|drink when _ dead, to|
 (F2 E2 F2) G2 | C6 C2 | D2 (EF) G2 (AB) | C2 (DE) F4 | z2 F2 A2 F2 | z2 D2 E2 F2 | C2 F2 B,2 C2 | %14
w: drink _ _ when|dead, my|Liq- uor _ shan't be _|Blood tho' _ red,|my Liq- uor,|my Liq- uor|shan't be Blood tho'|
 F6 :| %15
w: red.|
V:3
|: A2 | (cB) (AG) F2 f2 | (fd) (cB) c3 C | F4 (C3 F) | G2 (FE) F2 B2 | A2 F2 c2 z c | %6
w: The|Juice _ of _ Grapes best|suits _ with _ me, to|some huge _|Cask, to _ some huge|Cask of Wine I'll|
 d2 (cB) c2{B} A2 | G3 G A2 F2 |{F} E6 E2 | (F2 D2) G4 | E2 C2 (F>G A>B | c6) c2 |{c} B6 A2 | %13
w: be, I'll _ be a|Vam- pire when I|dye, to|some _ huge|Cask of Wine, _ _ _|_ I'll|be a|
 G2 A2 B2 (AG) | F6 :| %15
w: Vam- pire when I _|dye.|

